X:1
T:The Pleading Savior
T:The Pleading Savior
T:John J. Lowe
T:John Love, Jr., 1889
T:Public Domain Courtesy of the Cyber Hymnal™
T:Public Domain Courtesy of the Cyber Hymnal™
C:John J. Lowe
Z:Public Domain
Z:Courtesy of the Cyber Hymnal™
%%score 1 ( 2 3 )
L:1/8
Q:1/4=95
M:3/4
K:Bb
V:1 treble 
V:2 bass 
V:3 bass 
V:1
 [DF]>[EG] | [DF]2 [DB]2 [Fd]>[Ec] | [DB]4 [CA]>[DB] | [Ec]4 [DB]>[Ec] | [Fd]4 [DF]>[EG] | %5
w: 1.~Je- sus|calls thee, wan- d’rer,|come; Calls to-|day, calls to-|day, Longs to|
w: 2.~Pa- tient-|ly He waits for|thee, Waits to-|day, waits to-|day, Of- fers|
w: 3.~He will|cleanse your sins a-|way, All a-|way, all a-|way; Why de-|
w: 4.~Now He|pleads with ten- der|voice, Pleads to-|day, pleads to-|day, Make His|
 [DF]2 [DB]2 [Fd]>[Ec] | [DB]4 [EB]>[EG] | ([DF]2 [Fd]2) [Fd]>[Ec] | [DB]4 [EA]>[DB] | %9
w: bid thee wel- come|home, Home to-|day, * home to-|day; Won- drous|
w: full sal- va- tion|free, Free to-|day, * free to-|day; Wouldst thou|
w: lay the glor- ious|day? Why de-|lay? * why de-|lay? Oh, the|
w: love your sac- red|choice, Choose to-|day, * choose to-|day; Shall His|
 [Ec]2 [Ec]2 [DB]>[Ec] | [Fd]4 [DF]>[DF] | [EG]2 [EG]2 [GB]>[EG] | [DF]4 [B,D]>[CE] | %13
w: love His heart doth|feel, Won- drous|love He would re-|veal, For His|
w: know His sav- ing|grace? Wouldst thou|feel His strong em-|brace? Thro’ thy|
w: joy you might re-|ceive If on|Him you would be-|lieve, Thought nor|
w: plead- ing be re-|fused? Shall His|mer- cy be a-|bused? Come, by|
 [DF]2 [DB]2 [Fd]>[Fc] | [FB]4 [GB]>[EG] | ([DF]2 [Fd]2) [Fd]>[Ec] | [DB]4 ||"^Refrain" [CA]>[DB] | %18
w: own thy life would|seal, Seal to-|day, * seal to-|day.||
w: life His fa- vor|trace? Yield to-|day, * yield to-|day.|Come to-|
w: fan- cy can con-|ceive: Don’t de-|lay, * don’t de-|lay.||
w: grace di- vine en-|thused, Come to-|day, * come to-|day.||
 [Ec]4 | [DB]>[Ec] [Fd]4 | [DF]>[DF] [EG]3 [GB] | [FA][EG] [DF]4 | [B,D]>[CE] [DF]2 [DB]2 | %23
w: |||||
w: day,|come to- day,|Hear the bless- èd|Sav- ior say:|“I will cleanse thy|
w: |||||
w: |||||
 [Fd]>[Fc] [FB]4 | [GB]>[EG] ([DF]2 [Fd]2) | [Fd]>[Ec] [DB]4 |] %26
w: |||
w: sins a- way;|Why de- lay? *|why de- lay?”|
w: |||
w: |||
V:2
 [B,,B,]>[B,,B,] | [B,,B,]2 [B,,F,]2 [B,,B,]>[B,,F,] | [B,,F,]4 F,>[F,B,] | %3
w: ||* Come *|
 [F,A,]4 [B,,F,]>[B,,F,] | [B,,B,]4 [B,,B,]>[B,,B,] | [B,,B,]2 [B,,F,]2 [B,,B,]>[B,,F,] | %6
w: |||
 [B,,F,]4 [E,G,]>[E,B,] | [F,B,]4 [F,B,]>[F,A,] | [B,,F,B,]4 [F,C]>[F,B,] | %9
w: |||
 [F,A,]2 [F,A,]2 [F,B,]>[F,A,] | [B,,B,]4 [B,,B,]>[B,,B,] | [E,B,]2 [E,B,]2 [E,B,]>[E,B,] | %12
w: |||
 [B,,B,]4 [B,,F,]>[B,,F,] | [B,,B,]2 [B,,F,]2 [B,,B,]>[C,A,] | [D,B,]4 [E,B,]>[E,B,] | %15
w: |||
 [F,B,]4 [F,B,]>[F,A,] | [B,,F,B,]4 || z2 | [F,A,]>[F,A,] [F,A,]2 | z2 [B,,B,]>[B,,B,] [B,,B,]2 | %20
w: |||to- day, come|to- day, Hear|
 z2 [E,B,]>[E,B,] [E,B,][E,B,] | [E,B,][E,B,] [B,,B,]4 | [B,,F,]>[B,,F,] [B,,B,]2 [B,,F,]2 | %23
w: the bless- éd *|||
 [B,,B,]>[C,A,] [D,B,]4 | [E,B,]>[E,B,] [F,B,]4 | [F,B,]>[F,A,] [B,,F,B,]4 |] %26
w: |||
V:3
 x2 | x6 | x4 F,3/2 x/ | x6 | x6 | x6 | x6 | x6 | x6 | x6 | x6 | x6 | x6 | x6 | x6 | x6 | x4 || %17
 x2 | x4 | x6 | x6 | x6 | x6 | x6 | x6 | x6 |] %26

